build/img/svg/whatsapp.svg

<svg width="20" height="20" viewBox="0 0 20 20" fill="none" xmlns="http://www.w3.org/2000/svg">
<path d="M10.0398 0C4.5798 0 0.129805 4.45 0.129805 9.91C0.129805 11.66 0.589805 13.36 1.4498 14.86L0.0498047 20L5.2998 18.62C6.7498 19.41 8.3798 19.83 10.0398 19.83C15.4998 19.83 19.9498 15.38 19.9498 9.92C19.9498 7.27 18.9198 4.78 17.0498 2.91C15.1798 1.03 12.6898 0 10.0398 0ZM10.0498 1.67C12.2498 1.67 14.3098 2.53 15.8698 4.09C17.4198 5.65 18.2798 7.72 18.2798 9.92C18.2798 14.46 14.5798 18.15 10.0398 18.15C8.5598 18.15 7.10981 17.76 5.8498 17L5.5498 16.83L2.4298 17.65L3.2598 14.61L3.0598 14.29C2.2398 13 1.7998 11.47 1.7998 9.91C1.8098 5.37 5.4998 1.67 10.0498 1.67ZM6.5298 5.33C6.3698 5.33 6.0998 5.39 5.8698 5.64C5.6498 5.89 4.9998 6.5 4.9998 7.71C4.9998 8.93 5.8898 10.1 5.9998 10.27C6.1398 10.44 7.7598 12.94 10.2498 14C10.8398 14.27 11.2998 14.42 11.6598 14.53C12.2498 14.72 12.7898 14.69 13.2198 14.63C13.6998 14.56 14.6798 14.03 14.8898 13.45C15.0998 12.87 15.0998 12.38 15.0398 12.27C14.9698 12.17 14.8098 12.11 14.5598 12C14.3098 11.86 13.0898 11.26 12.8698 11.18C12.6398 11.1 12.4998 11.06 12.3098 11.3C12.1498 11.55 11.6698 12.11 11.5298 12.27C11.3798 12.44 11.2398 12.46 10.9998 12.34C10.7398 12.21 9.9398 11.95 8.9998 11.11C8.2598 10.45 7.7698 9.64 7.6198 9.39C7.4998 9.15 7.6098 9 7.7298 8.89C7.8398 8.78 7.9998 8.6 8.0998 8.45C8.2298 8.31 8.2698 8.2 8.3498 8.04C8.4298 7.87 8.3898 7.73 8.3298 7.61C8.2698 7.5 7.7698 6.26 7.5598 5.77C7.35981 5.29 7.1598 5.35 6.9998 5.34C6.8598 5.34 6.6998 5.33 6.5298 5.33Z" fill="#28AD00"/>
</svg>

<?xml version="1.0" encoding="utf-8"?>
<!-- Generator: Adobe Illustrator 24.1.1, SVG Export Plug-In . SVG Version: 6.00 Build 0)  -->
<svg version="1.1" id="Слой_1" xmlns="http://www.w3.org/2000/svg" xmlns:xlink="http://www.w3.org/1999/xlink" x="0px" y="0px"
	 viewBox="0 0 20 20" style="enable-background:new 0 0 20 20;" xml:space="preserve">
<style type="text/css">
	.st0{fill:#FFFFFF;}
	.st1{fill:#28AD00;}
</style>
<path class="st0" d="M10,0C4.6,0,0.1,4.4,0.1,9.9c0,1.8,0.5,3.4,1.3,4.9L0.1,20l5.2-1.4c1.5,0.8,3.1,1.2,4.7,1.2
	c5.5,0,9.9-4.4,9.9-9.9c0-2.7-1-5.1-2.9-7C15.2,1,12.7,0,10,0z"/>
<path class="st1" d="M10,0C4.6,0,0.1,4.4,0.1,9.9c0,1.8,0.5,3.4,1.3,4.9L0.1,20l5.2-1.4c1.5,0.8,3.1,1.2,4.7,1.2
	c5.5,0,9.9-4.4,9.9-9.9c0-2.7-1-5.1-2.9-7C15.2,1,12.7,0,10,0z M10,1.7c2.2,0,4.3,0.9,5.8,2.4c1.5,1.6,2.4,3.6,2.4,5.8
	c0,4.5-3.7,8.2-8.2,8.2c-1.5,0-2.9-0.4-4.2-1.1l-0.3-0.2l-3.1,0.8l0.8-3l-0.2-0.3C2.2,13,1.8,11.5,1.8,9.9C1.8,5.4,5.5,1.7,10,1.7z
	 M6.5,5.3c-0.2,0-0.4,0.1-0.7,0.3C5.6,5.9,5,6.5,5,7.7c0,1.2,0.9,2.4,1,2.6c0.1,0.2,1.8,2.7,4.2,3.7c0.6,0.3,1.1,0.4,1.4,0.5
	c0.6,0.2,1.1,0.2,1.6,0.1c0.5-0.1,1.5-0.6,1.7-1.2s0.2-1.1,0.1-1.2c-0.1-0.1-0.2-0.2-0.5-0.3c-0.3-0.1-1.5-0.7-1.7-0.8
	c-0.2-0.1-0.4-0.1-0.6,0.1c-0.2,0.3-0.6,0.8-0.8,1c-0.2,0.2-0.3,0.2-0.5,0.1c-0.3-0.1-1.1-0.4-2-1.2c-0.7-0.7-1.2-1.5-1.4-1.7
	C7.5,9.1,7.6,9,7.7,8.9C7.8,8.8,8,8.6,8.1,8.4C8.2,8.3,8.3,8.2,8.3,8c0.1-0.2,0-0.3,0-0.4C8.3,7.5,7.8,6.3,7.6,5.8
	C7.4,5.3,7.2,5.3,7,5.3C6.9,5.3,6.7,5.3,6.5,5.3z"/>
</svg>
